sources/design/Outline/multiply.svg

<svg:svg xmlns:cc="http://creativecommons.org/ns#" xmlns:dc="http://purl.org/dc/elements/1.1/" xmlns:inkscape="http://www.inkscape.org/namespaces/inkscape" xmlns:rdf="http://www.w3.org/1999/02/22-rdf-syntax-ns#" xmlns:sodipodi="http://sodipodi.sourceforge.net/DTD/sodipodi-0.dtd" xmlns:svg="http://www.w3.org/2000/svg" xml:space="preserve" width="1000" height="1000" version="1.1" style="clip-rule:evenodd;fill-rule:evenodd;image-rendering:optimizeQuality;shape-rendering:geometricPrecision;text-rendering:geometricPrecision" viewBox="0 0 1000 1000" id="svg10" sodipodi:docname="multiply.svg" inkscape:version="1.0.2 (e86c870879, 2021-01-15)"><svg:metadata id="metadata14"><rdf:RDF><cc:Work rdf:about=""><dc:format>image/svg+xml</dc:format><dc:type rdf:resource="http://purl.org/dc/dcmitype/StillImage" /><dc:title /></cc:Work></rdf:RDF></svg:metadata><sodipodi:namedview pagecolor="#ffffff" bordercolor="#666666" borderopacity="1" objecttolerance="10" gridtolerance="10" guidetolerance="10" inkscape:pageopacity="0" inkscape:pageshadow="2" inkscape:window-width="1920" inkscape:window-height="1007" id="namedview12" showgrid="false" inkscape:zoom="0.84890884" inkscape:cx="169.61082" inkscape:cy="488.96323" inkscape:window-x="1920" inkscape:window-y="0" inkscape:window-maximized="1" inkscape:current-layer="svg10" showguides="true" inkscape:guide-bbox="true" inkscape:document-rotation="0" inkscape:pagecheckerboard="0"><sodipodi:guide position="0,1000" orientation="0,1" id="guide16" inkscape:label="" inkscape:locked="true" inkscape:color="rgb(0,0,255)" /><sodipodi:guide position="1763.3122,2036.1693" orientation="1000,0" id="guide18" /><sodipodi:guide position="0,200" orientation="0,1" id="guide20" inkscape:label="base" inkscape:locked="true" inkscape:color="rgb(0,0,255)" /><inkscape:grid type="xygrid" id="grid24" originx="-473.37552" originy="-489.69235" /><sodipodi:guide position="0,0" orientation="0,1" id="guide34" inkscape:label="bottom" inkscape:locked="true" inkscape:color="rgb(0,0,255)" /><sodipodi:guide position="225.05109,1693.3186" orientation="0,1" id="guide44" inkscape:label="" inkscape:locked="false" inkscape:color="rgb(0,0,255)" /><sodipodi:guide position="0,900" orientation="0,1" id="guide46" inkscape:label="" inkscape:locked="true" inkscape:color="rgb(0,0,255)" /><sodipodi:guide position="557.21792,579.92792" orientation="1,0" id="guide841" inkscape:label="width" />    </sodipodi:namedview>
 <svg:defs id="defs4"><inkscape:path-effect effect="fillet_chamfer" id="path-effect852" is_visible="true" lpeversion="1" satellites_param="F,0,1,1,0,20.277476,0,1 @ F,0,1,1,0,20.277476,0,1 @ F,0,0,1,0,0,0,1 @ F,0,1,1,0,20.277476,0,1 @ F,0,1,1,0,20.277476,0,1 @ F,0,0,1,0,0,0,1 | F,0,1,1,0,20.277476,0,1 @ F,0,1,1,0,20.277476,0,1 @ F,0,0,1,0,0,0,1 @ F,0,1,1,0,20.277476,0,1 @ F,0,1,1,0,20.277476,0,1 @ F,0,0,1,0,0,0,1" unit="px" method="auto" mode="F" radius="0" chamfer_steps="1" flexible="false" use_knot_distance="true" apply_no_radius="true" apply_with_radius="true" only_selected="true" hide_knots="false" /><inkscape:path-effect effect="fillet_chamfer" id="path-effect854" is_visible="true" lpeversion="1" satellites_param="F,0,0,1,0,27.110199,0,1 @ F,0,0,1,0,51.848564,0,1 @ F,0,0,1,0,25.11999,0,1 @ F,0,0,1,0,37.967245,0,1 | F,0,0,1,0,24.85667,0,1 @ F,0,0,1,0,18.728014,0,1 @ F,0,1,1,0,15.042491,0,1 @ F,0,0,1,0,38.883946,0,1 @ F,0,0,1,0,48.423085,0,1" unit="px" method="auto" mode="F" radius="0" chamfer_steps="1" flexible="false" use_knot_distance="true" apply_no_radius="true" apply_with_radius="true" only_selected="true" hide_knots="false" /><inkscape:path-effect effect="spiro" id="path-effect943" is_visible="true" lpeversion="1" /><inkscape:path-effect effect="spiro" id="path-effect924" is_visible="true" lpeversion="1" /><inkscape:path-effect effect="spiro" id="path-effect868" is_visible="true" lpeversion="1" /><inkscape:path-effect effect="spiro" id="path-effect849" is_visible="true" lpeversion="1" /><inkscape:path-effect effect="spiro" id="path-effect851" is_visible="true" lpeversion="1" />
  <svg:style type="text/css" id="style2">
   
    .fil0 {fill:#EF7F1A;fill-rule:nonzero}
   
  </svg:style>
 <inkscape:path-effect effect="spiro" id="path-effect1214" is_visible="true" lpeversion="1" /><inkscape:path-effect effect="spiro" id="path-effect1195" is_visible="true" lpeversion="1" /><inkscape:path-effect effect="spiro" id="path-effect992" is_visible="true" lpeversion="1" /><inkscape:path-effect effect="spiro" id="path-effect1060" is_visible="true" lpeversion="1" /><inkscape:path-effect effect="spiro" id="path-effect1047" is_visible="true" lpeversion="1" /><inkscape:path-effect effect="spiro" id="path-effect1085" is_visible="true" lpeversion="1" /><inkscape:path-effect effect="spiro" id="path-effect1286" is_visible="true" lpeversion="1" /></svg:defs>
 
<svg:g id="path922-7"><svg:path style="color:#000000;fill:#1a5fb4;fill-rule:nonzero;stroke-linecap:round;stroke-linejoin:round;-inkscape-stroke:none;paint-order:fill stroke markers" d="M 453.98047,90.503906 C 434.37202,89.811448 414.9248,100.75379 406.31836,119.2793 C 370.45581,196.47404 329.79873,271.44229 284.73828,343.6582 C 238.39231,271.40928 195.49604,196.94446 156.2832,120.58984 C 143.8248,96.331029 113.84249,86.092301 89.134766,97.958984 L 15.644531,133.25391 C 3.4384773,139.11626 -6.5780912,150.602 -9.8613281,164.1875 C -13.144565,177.773 -9.4904688,192.5312 -1.3417969,203.32031 C 66.149087,292.68051 131.43825,383.69596 194.70117,476.09766 C 133.14737,559.61668 65.43298,638.60484 -7.8984375,711.99609 C -16.983479,721.08855 -23.98828,736.15238 -20.5625,751.75977 C -17.13672,767.36715 -4.345415299999999,778.19391 7.7890625,782.58203 L 96.279297,814.58203 C 121.38268,823.66003 145.70076,816.45005 161.73828,795.03516 C 205.29567,736.8729900000001 247.96168,678.04611 289.90430000000003,618.70898 C 327.63574000000006,676.72802 364.63735,735.22126 400.68555000000003,794.30078 C 414.76729000000006,817.3794 440.62226000000004,826.53105 466.10352,817.31641 L 554.59375,785.31641 C 566.86083,780.8803300000001 579.33091,770.0669800000001 582.98242,754.92187 C 586.6339300000001,739.77677 580.5135700000001,724.56617 571.6933600000001,715.01172 C 504.31838,642.02805 441.04523,565.26033 382.16797,485.26172 C 445.76464,391.2684 507.45811,295.9873 566.96289,199.35156 C 581.31421,176.04503 571.3733,142.35325 546.73828,130.52148 L 473.24805,95.224609 C 467.07147999999995,92.258113 460.51662,90.734726 453.98046999999997,90.503906 L 453.98047,90.503906 M 456.37891,153.68359 L 508.97656,178.94531 C 455.93647,264.76389 401.19616,349.52777000000003 344.89648,433.24414 C 340.11655,426.41395 335.27844,419.62447000000003 330.5625,412.75 C 327.32052,408.02413 324.16083,403.24268 320.94922,398.49609 C 371.36566000000005,319.95513 416.65512,238.13945999999999 456.37891,153.68358999999998 L 456.37891,153.68359 M 107.05469,155.91211 C 150.18644999999998,239.22846 197.60707,320.31261 249.04102,398.77539 C 244.3769,405.74873 239.76211,412.75581 235.01367,419.67187 C 233.97404,421.18608 232.88546,422.66630000000004 231.84179999999998,424.17773 C 175.00341,341.69199 116.50723,260.35403 56.314453,180.2832 L 107.05469,155.91211 M 285.19336,452.56641 C 293.02797,463.92316 300.90891999999997,475.24933000000004 308.91406,486.48633 C 303.10207,494.97807 297.19486,503.40416 291.34961,511.87305000000003 C 283.58335,500.24368000000004 275.87806,488.57272000000006 268.04492,476.98828000000003 C 273.53753,469.21373000000006 279.08853999999997,461.48042000000004 284.47656,453.63281 C 284.719,453.27971 284.95114,452.91966 285.19336,452.56641 M 230.43554999999998,528.70117 C 238.50579999999997,540.71416 246.55679999999998,552.7394800000001 254.55469,564.80078 C 209.00845999999999,629.6478900000001 162.52261,693.83515 115.03906,757.2773400000001 C 115.32329,757.5242900000001 115.76119000000001,757.82464 116.68359000000001,758.1582000000001 L 114.87109000000001,757.5039100000001 C 114.48228,758.0233500000002 114.10183,758.5490100000002 113.71289000000002,759.0683600000001 C 114.30743000000001,758.2744800000002 114.51354000000002,757.7790600000001 114.62109000000001,757.4121100000001 L 53.273437,735.22852 C 116.61863,670.21749 175.86418,601.23188 230.43555,528.70117 L 230.43554999999998,528.70117 M 346.41796999999997,537.72852 C 398.07264999999995,606.79683 452.99533999999994,673.40564 510.92186999999996,737.30664 L 449.68163999999996,759.45312 C 409.83701999999994,694.23682 368.90108999999995,629.69147 327.02343999999994,565.76172 C 333.50622999999996,556.4298799999999 339.97533999999996,547.08813 346.4179699999999,537.72852 L 346.41796999999997,537.72852 M 450.50780999999995,760.79102 C 450.86413999999996,761.30567 451.28254999999996,762.02984 451.9042999999999,763.04883 C 451.4433599999999,762.2933999999999 450.96901999999994,761.5462699999999 450.50780999999995,760.79102" id="path5451" /></svg:g></svg:svg>

<svg:svg xmlns:cc="http://creativecommons.org/ns#" xmlns:dc="http://purl.org/dc/elements/1.1/" xmlns:inkscape="http://www.inkscape.org/namespaces/inkscape" xmlns:rdf="http://www.w3.org/1999/02/22-rdf-syntax-ns#" xmlns:sodipodi="http://sodipodi.sourceforge.net/DTD/sodipodi-0.dtd" xmlns:svg="http://www.w3.org/2000/svg" xml:space="preserve" width="1000" height="1000" version="1.1" style="clip-rule:evenodd;fill-rule:evenodd;image-rendering:optimizeQuality;shape-rendering:geometricPrecision;text-rendering:geometricPrecision" viewBox="0 0 1000 1000" id="svg10" sodipodi:docname="multiply.svg" inkscape:version="1.0.2 (e86c870879, 2021-01-15)"><svg:metadata id="metadata14"><rdf:RDF><cc:Work rdf:about=""><dc:format>image/svg+xml</dc:format><dc:type rdf:resource="http://purl.org/dc/dcmitype/StillImage" /><dc:title /></cc:Work></rdf:RDF></svg:metadata><sodipodi:namedview pagecolor="#ffffff" bordercolor="#666666" borderopacity="1" objecttolerance="10" gridtolerance="10" guidetolerance="10" inkscape:pageopacity="0" inkscape:pageshadow="2" inkscape:window-width="1920" inkscape:window-height="1007" id="namedview12" showgrid="false" inkscape:zoom="0.84890884" inkscape:cx="169.61082" inkscape:cy="488.96323" inkscape:window-x="1920" inkscape:window-y="0" inkscape:window-maximized="1" inkscape:current-layer="svg10" showguides="true" inkscape:guide-bbox="true" inkscape:document-rotation="0" inkscape:pagecheckerboard="0"><sodipodi:guide position="0,1000" orientation="0,1" id="guide16" inkscape:label="" inkscape:locked="true" inkscape:color="rgb(0,0,255)" /><sodipodi:guide position="1763.3122,2036.1693" orientation="1000,0" id="guide18" /><sodipodi:guide position="0,200" orientation="0,1" id="guide20" inkscape:label="base" inkscape:locked="true" inkscape:color="rgb(0,0,255)" /><inkscape:grid type="xygrid" id="grid24" originx="-473.37552" originy="-489.69235" /><sodipodi:guide position="0,0" orientation="0,1" id="guide34" inkscape:label="bottom" inkscape:locked="true" inkscape:color="rgb(0,0,255)" /><sodipodi:guide position="225.05109,1693.3186" orientation="0,1" id="guide44" inkscape:label="" inkscape:locked="false" inkscape:color="rgb(0,0,255)" /><sodipodi:guide position="0,900" orientation="0,1" id="guide46" inkscape:label="" inkscape:locked="true" inkscape:color="rgb(0,0,255)" /><sodipodi:guide position="557.21792,579.92792" orientation="1,0" id="guide841" inkscape:label="width" />    </sodipodi:namedview>
 <svg:defs id="defs4"><inkscape:path-effect effect="fillet_chamfer" id="path-effect852" is_visible="true" lpeversion="1" satellites_param="F,0,1,1,0,20.277476,0,1 @ F,0,1,1,0,20.277476,0,1 @ F,0,0,1,0,0,0,1 @ F,0,1,1,0,20.277476,0,1 @ F,0,1,1,0,20.277476,0,1 @ F,0,0,1,0,0,0,1 | F,0,1,1,0,20.277476,0,1 @ F,0,1,1,0,20.277476,0,1 @ F,0,0,1,0,0,0,1 @ F,0,1,1,0,20.277476,0,1 @ F,0,1,1,0,20.277476,0,1 @ F,0,0,1,0,0,0,1" unit="px" method="auto" mode="F" radius="0" chamfer_steps="1" flexible="false" use_knot_distance="true" apply_no_radius="true" apply_with_radius="true" only_selected="true" hide_knots="false" /><inkscape:path-effect effect="fillet_chamfer" id="path-effect854" is_visible="true" lpeversion="1" satellites_param="F,0,0,1,0,27.110199,0,1 @ F,0,0,1,0,51.848564,0,1 @ F,0,0,1,0,25.11999,0,1 @ F,0,0,1,0,37.967245,0,1 | F,0,0,1,0,24.85667,0,1 @ F,0,0,1,0,18.728014,0,1 @ F,0,1,1,0,15.042491,0,1 @ F,0,0,1,0,38.883946,0,1 @ F,0,0,1,0,48.423085,0,1" unit="px" method="auto" mode="F" radius="0" chamfer_steps="1" flexible="false" use_knot_distance="true" apply_no_radius="true" apply_with_radius="true" only_selected="true" hide_knots="false" /><inkscape:path-effect effect="spiro" id="path-effect943" is_visible="true" lpeversion="1" /><inkscape:path-effect effect="spiro" id="path-effect924" is_visible="true" lpeversion="1" /><inkscape:path-effect effect="spiro" id="path-effect868" is_visible="true" lpeversion="1" /><inkscape:path-effect effect="spiro" id="path-effect849" is_visible="true" lpeversion="1" /><inkscape:path-effect effect="spiro" id="path-effect851" is_visible="true" lpeversion="1" />
  <svg:style type="text/css" id="style2">
   
    .fil0 {fill:#EF7F1A;fill-rule:nonzero}
   
  </svg:style>
 <inkscape:path-effect effect="spiro" id="path-effect1214" is_visible="true" lpeversion="1" /><inkscape:path-effect effect="spiro" id="path-effect1195" is_visible="true" lpeversion="1" /><inkscape:path-effect effect="spiro" id="path-effect992" is_visible="true" lpeversion="1" /><inkscape:path-effect effect="spiro" id="path-effect1060" is_visible="true" lpeversion="1" /><inkscape:path-effect effect="spiro" id="path-effect1047" is_visible="true" lpeversion="1" /><inkscape:path-effect effect="spiro" id="path-effect1085" is_visible="true" lpeversion="1" /><inkscape:path-effect effect="spiro" id="path-effect1286" is_visible="true" lpeversion="1" /></svg:defs>
 
<svg:g id="path922-7"><svg:path style="color:#000000;fill:#1a5fb4;fill-rule:nonzero;stroke-linecap:round;stroke-linejoin:round;-inkscape-stroke:none" d="M 453.98047,90.503906 C 434.37202,89.811448 414.9248,100.75379 406.31836,119.2793 370.45581,196.47404 329.79873,271.44229 284.73828,343.6582 238.39231,271.40928 195.49604,196.94446 156.2832,120.58984 143.8248,96.331029 113.84249,86.092301 89.134766,97.958984 L 15.644531,133.25391 C 3.4384773,139.11626 -6.5780912,150.602 -9.8613281,164.1875 -13.144565,177.773 -9.4904688,192.5312 -1.3417969,203.32031 66.149087,292.68051 131.43825,383.69596 194.70117,476.09766 133.14737,559.61668 65.43298,638.60484 -7.8984375,711.99609 -16.983479,721.08855 -23.98828,736.15238 -20.5625,751.75977 c 3.42578,15.60738 16.2170847,26.43414 28.3515625,30.82226 l 88.4902345,32 c 25.103383,9.078 49.421463,1.86802 65.458983,-19.54687 43.55739,-58.16217 86.2234,-116.98905 128.16602,-176.32618 37.73144,58.01904 74.73305,116.51228 110.78125,175.5918 14.08174,23.07862 39.93671,32.23027 65.41797,23.01563 l 88.49023,-32 c 12.26708,-4.43608 24.73716,-15.24943 28.38867,-30.39454 3.65151,-15.1451 -2.46885,-30.3557 -11.28906,-39.91015 C 504.31838,642.02805 441.04523,565.26033 382.16797,485.26172 445.76464,391.2684 507.45811,295.9873 566.96289,199.35156 581.31421,176.04503 571.3733,142.35325 546.73828,130.52148 L 473.24805,95.224609 c -6.17657,-2.966496 -12.73143,-4.489883 -19.26758,-4.720703 z m 2.39844,63.179684 52.59765,25.26172 c -53.04009,85.81858 -107.7804,170.58246 -164.08008,254.29883 -4.77993,-6.83019 -9.61804,-13.61967 -14.33398,-20.49414 -3.24198,-4.72587 -6.40167,-9.50732 -9.61328,-14.25391 50.41644,-78.54096 95.7059,-160.35663 135.42969,-244.8125 z m -349.32422,2.22852 c 43.13176,83.31635 90.55238,164.4005 141.98633,242.86328 -4.66412,6.97334 -9.27891,13.98042 -14.02735,20.89648 -1.03963,1.51421 -2.12821,2.99443 -3.17187,4.50586 C 175.00341,341.69199 116.50723,260.35403 56.314453,180.2832 Z m 178.13867,296.6543 c 7.83461,11.35675 15.71556,22.68292 23.7207,33.91992 -5.81199,8.49174 -11.7192,16.91783 -17.56445,25.38672 -7.76626,-11.62937 -15.47155,-23.30033 -23.30469,-34.88477 5.49261,-7.77455 11.04362,-15.50786 16.43164,-23.35547 0.24244,-0.3531 0.47458,-0.71315 0.7168,-1.0664 z m -54.75781,76.13476 c 8.07025,12.01299 16.12125,24.03831 24.11914,36.09961 -45.54623,64.84711 -92.03208,129.03437 -139.51563,192.47656 0.28423,0.24695 0.72213,0.5473 1.64453,0.88086 l -1.8125,-0.65429 c -0.38881,0.51944 -0.76926,1.0451 -1.1582,1.56445 0.59454,-0.79388 0.80065,-1.2893 0.9082,-1.65625 L 53.273437,735.22852 C 116.61863,670.21749 175.86418,601.23188 230.43555,528.70117 Z m 115.98242,9.02735 c 51.65468,69.06831 106.57737,135.67712 164.5039,199.57812 l -61.24023,22.14648 c -39.84462,-65.2163 -80.78055,-129.76165 -122.6582,-193.6914 6.48279,-9.33184 12.9519,-18.67359 19.39453,-28.0332 z m 104.08984,223.0625 c 0.35633,0.51465 0.77474,1.23882 1.39649,2.25781 -0.46094,-0.75543 -0.93528,-1.50256 -1.39649,-2.25781 z" id="path5439" /></svg:g></svg:svg>
